!!!!SEGMENT: pl-sa--l-1643--034_anonim--canticis-sanctam-celebremus-annam.krn
!!!cenid: 16xx:1389
!!!COM: Anonim
!!!COM-rismid: pe30004985
!!!CDT:
!!!CNT:
!!!OTL: Canticis sanctam celebremus Annam
!!!PDT:
!!!AGN: Sacred
!!!SMS-siglum: PL-SA
!!!SMS-shelfmark: L 1643
!!!SMS-shelfwork: 034 W
!!!SMS-variant:
!!!SMS-altvar:
!!!NIFC-rismid: 1001063342
!!!URL-scan: http://repozytorium.nifc.pl/skany/pl-sa-nut--l1643
!!!ONB-nifc: UWAGA: 8 ksiąg. Primi chori: 1mus Cantus (58-59), C 2dus (58-59), C 3tius (57-58), Bassus (54-55); Secondi chori: Primus Cantus (56-57), C 2dus (57-58), Altus (57-58), Bassus (57-58). UWAGA: metrum 2/2 i 3/2. Nie dodawać pustych linii, chyba że w rękopisie pojawiają się dodatkowe oznaczenia dotyczące pełnej obsady (a 4, a 8 itp.)
!!!key:
**kern	**text	**kern	**text	**kern	**text	**kern	**text	**kern	**text	**kern	**text	**kern	**text	**kern	**text
*part8	*part8	*part7	*part7	*part6	*part6	*part5	*part5	*part4	*part4	*part3	*part3	*part2	*part2	*part1	*part1
*staff8	*staff8	*staff7	*staff7	*staff6	*staff6	*staff5	*staff5	*staff4	*staff4	*staff3	*staff3	*staff2	*staff2	*staff1	*staff1
*Iempty	*	*Iempty	*	*Iempty	*	*Iempty	*	*Iempty	*	*Iempty	*	*Iempty	*	*Iempty	*
*I"Secondi chori: Bassus	*	*I"Secondi chori: Altus	*	*I"Secondi chori: C 2dus	*	*I"Secondi chori: Primus Cantus	*	*I"Primi chori: Bassus	*	*I"VoceaPrimi chori: C 3tius	*	*I"Primi chori: C 2dus	*	*I"Primi chori: 1mus Cantus	*
*clefC3	*	*clefC2	*	*clefC1	*	*clefG2	*	*clefC3	*	*clefC2	*	*clefC1	*	*clefG2	*
*k[]	*	*k[]	*	*k[]	*	*k[]	*	*k[]	*	*k[]	*	*k[]	*	*k[]	*
*C:	*	*C:	*	*C:	*	*C:	*	*C:	*	*C:	*	*C:	*	*C:	*
*M2/2	*	*M2/2	*	*M2/2	*	*M2/2	*	*M2/2	*	*M2/2	*	*M2/2	*	*M2/2	*
*met(C|)	*	*met(C|)	*	*met(C|)	*	*met(C|)	*	*met(C|)	*	*met(C|)	*	*met(C|)	*	*met(C|)	*
=1-	=1-	=1-	=1-	=1-	=1-	=1-	=1-	=1-	=1-	=1-	=1-	=1-	=1-	=1-	=1-
1r	.	1r	.	1r	.	1r	.	2g\	Can-	2g\	Can-	2g/	Can-	2g/	Can-
.	.	.	.	.	.	.	.	4g\	-ti-	4g\	-ti-	4g/	-ti-	4b/	-ti-
.	.	.	.	.	.	.	.	4e\	-cis	4g\	-cis	4g/	-cis	4cc\	-cis
=2-	=2-	=2-	=2-	=2-	=2-	=2-	=2-	=2-	=2-	=2-	=2-	=2-	=2-	=2-	=2-
!	!	!	!	!	!	!	!	!	!	!LO:TX:b:t=P:problem:# below	!	!	!	!	!
2r	.	2r	.	2r	.	2r	.	2d\	San-	2f#X\	San-	2a\	San-	2dd\	San-
4r	.	4r	.	4r	.	4r	.	2g\	-ctam	2g\	-ctam	2b\	-ctam	2dd\	-ctam
4g\	Can-	4g\	Can-	4g/	Can-	4g/	Can-	.	.	.	.	.	.	.	.
=3-	=3-	=3-	=3-	=3-	=3-	=3-	=3-	=3-	=3-	=3-	=3-	=3-	=3-	=3-	=3-
4g\	-ti-	4g\	-ti-	4g/	-ti-	4b/	-ti-	1r	.	1r	.	1r	.	1r	.
4e\	-cis	4g\	-cis	4g/	-cis	4cc\	-cis	.	.	.	.	.	.	.	.
!	!	!LO:TX:b:t=P:problem:# below	!	!	!	!	!	!	!	!	!	!	!	!	!
2d\	san-	2f#X\	san-	2a\	san-	2dd\	san-	.	.	.	.	.	.	.	.
=4-	=4-	=4-	=4-	=4-	=4-	=4-	=4-	=4-	=4-	=4-	=4-	=4-	=4-	=4-	=4-
2g\	-ctam	2g\	-ctam	2b\	-ctam	2dd\	-ctam	4r	.	4r	.	4r	.	4r	.
.	.	.	.	.	.	.	.	8g\L	ce-	8g\L	ce-	8g/L	ce-	8b/L	ce-
.	.	.	.	.	.	.	.	8e\J	-le-	8g\J	-le-	8a/J	-le-	8cc/J	-le-
!	!	!	!	!	!	!	!	!	!	!LO:TX:b:t=P:problem:# below	!	!	!	!	!
4r	.	4r	.	4r	.	4r	.	4d\	-bre-	4f#X\	-bre-	4b\	-bre-	4dd\	-bre-
8g\L	ce-	8g\L	ce-	8g/L	ce-	8b/L	ce-	4g\	-mus	4g\	-mus	4b\	-mus	4dd\	-mus
8e\J	-le-	8g\J	-le-	8g/J	-le-	8cc/J	-le-	.	.	.	.	.	.	.	.
=5-	=5-	=5-	=5-	=5-	=5-	=5-	=5-	=5-	=5-	=5-	=5-	=5-	=5-	=5-	=5-
!	!	!LO:TX:b:t=P:problem:# below	!	!	!	!	!	!	!	!	!	!	!	!	!
4d\	-bre-	4f#X\	-bre-	4a\	-bre-	4dd\	-bre-	4r	.	4r	.	4r	.	4r	.
*	*	*	*	*	*	*	*	*	*	*	*	*	*	*	*ij
!	!	!LO:TX:b:t=P:problem:# below	!	!	!	!	!	!	!	!	!	!	!	!	!
4d\	-mus	4f#X\	-mus	4a\	-mus	4dd\	-mus	8A/L	ce-	8e/L	ce-	8a\L	ce-	8cc\L	ce-
.	.	.	.	.	.	.	.	8d/J	-le-	8fny/J	-le-	8b\J	-le-	8dd\J	-le-
4r	.	4r	.	4r	.	4r	.	4c/	-bre-	4g\	-bre-	4cc\	-bre-	4ee\	-bre-
8c/L	ce-	8g\L	ce-	8cc\L	ce-	8cc\L	ce-	4c/	-mus	4g\	-mus	4cc\	-mus	4ee\	-mus
*	*	*	*	*	*	*	*	*	*	*	*	*	*	*	*Xij
8c/J	-le-	8g\J	-le-	8g\J	-le-	8dd\J	-le-	.	.	.	.	.	.	.	.
=6-	=6-	=6-	=6-	=6-	=6-	=6-	=6-	=6-	=6-	=6-	=6-	=6-	=6-	=6-	=6-
4c/	-bre-	4g\	-bre-	4cc\	-bre-	4ee\	-bre-	4r	.	4r	.	4r	.	4r	.
4c/	-mus	4g\	-mus	4cc\	-mus	4ee\	-mus	8c/L	ce-	8g\L	ce-	8cc\L	ce-	8ee\L	ce-
.	.	.	.	.	.	.	.	8A/J	-le-	8a\J	-le-	8cc\J	-le-	8ff\J	-le-
4r	.	4r	.	4r	.	4r	.	2G/	-bre-	2b\	-bre-	2dd\	-bre-	2gg\	-bre-
8g\L	ce-	8g\L	ce-	8dd\L	ce-	8gg\L	ce-	.	.	.	.	.	.	.	.
8g\J	-le-	8g\J	-le-	8dd\J	-le-	8dd\J	-le-	.	.	.	.	.	.	.	.
=7-	=7-	=7-	=7-	=7-	=7-	=7-	=7-	=7-	=7-	=7-	=7-	=7-	=7-	=7-	=7-
!	!	!	!	!	!	!	!	!	!	!	!	!	!	!LO:SIC:v:t=custos ee	!
4c/	-bre-	4g\	-bre-	4cc\	-bre-	4gg\	-bre-	2c/	-mus	2g\	-mus	2ee\	-mus	2gg\	-mus
4c,/	-mus	4g\	-mus	4cc\	-mus	4ee\	-mus	.	.	.	.	.	.	.	.
!	!	!	!	!	!	!	!	!	!	!	!	!	!	!LO:LB:g=original	!
4c/	ce-	4g\	ce-	4cc\	ce-	4ee\	ce-	4r	.	4r	.	4r	.	4r	.
!LO:SIC:v:t=custos f	!	!	!	!LO:SIC:v:t=custos cc	!	!	!	!	!	!	!	!	!	!	!
4c/	-le-	4g\	-le-	4g/	-le-	4ee\	-le-	8c/L	ce-	8g\L	ce-	8cc\L	ce-	8ee\L	ce-
!	!	!	!	!	!	!	!	!LO:SIC:v:t=custos F	!	!	!	!	!	!	!
.	.	.	.	.	.	.	.	8c/J	-le-	8g\J	-le-	8cc\J	-le-	8ee\J	-le-
=8-	=8-	=8-	=8-	=8-	=8-	=8-	=8-	=8-	=8-	=8-	=8-	=8-	=8-	=8-	=8-
!LO:LB:g=original	!	!	!	!LO:LB:g=original	!	!	!	!LO:LB:g=original	!	!	!	!	!	!	!
2f\	-bre-	2fny\	-bre-	2cc\	-bre-	4.cc\	-bre-	2F/	-bre-	2a\	-bre-	4a\	-bre-	2ff\	-bre-
!	!	!	!	!	!	!	!	!	!	!	!	!LO:SIC:v:t=custos cc	!	!	!
.	.	.	.	.	.	.	.	.	.	.	.	4b\	.	.	.
!	!	!	!	!	!	!LO:SIC:v:t=custos ee	!	!	!	!	!	!	!	!	!
.	.	.	.	.	.	8dd\	.	.	.	.	.	.	.	.	.
!	!	!	!	!	!	!LO:LB:g=original	!	!	!	!LO:SIC:v:t=custos g	!	!LO:LB:g=original	!	!	!
8c\L	-mus	4e/	-mus	2cc\	-mus	2ee\	-mus	2c/	-mus	2g\	-mus	2.cc\	-mus	2gg\	-mus
8d\	.	.	.	.	.	.	.	.	.	.	.	.	.	.	.
!	!	!LO:SIC:v:t=custos g	!	!	!	!	!	!	!	!	!	!	!	!	!
8e\	.	4g\	.	.	.	.	.	.	.	.	.	.	.	.	.
8f\J	.	.	.	.	.	.	.	.	.	.	.	.	.	.	.
=9-	=9-	=9-	=9-	=9-	=9-	=9-	=9-	=9-	=9-	=9-	=9-	=9-	=9-	=9-	=9-
!	!	!LO:LB:g=original	!	!	!	!	!	!	!	!LO:LB:g=original	!	!	!	!	!
1g	An-	1g	An-	1dd	An-	1dd	An-	1G	An-	1g	An-	.	.	1gg	An-
.	.	.	.	.	.	.	.	.	.	.	.	8b\L	.	.	.
.	.	.	.	.	.	.	.	.	.	.	.	8a\J	.	.	.
.	.	.	.	.	.	.	.	.	.	.	.	2b\	An-	.	.
=10-	=10-	=10-	=10-	=10-	=10-	=10-	=10-	=10-	=10-	=10-	=10-	=10-	=10-	=10-	=10-
1c	-nam	1g	-nam	1cc	-nam	1ee	-nam	1c	-nam	1g	-nam	1cc	-nam	1gg	-nam
=11-	=11-	=11-	=11-	=11-	=11-	=11-	=11-	=11-	=11-	=11-	=11-	=11-	=11-	=11-	=11-
*M3/2	*	*M3/2	*	*M3/2	*	*M3/2	*	*M3/2	*	*M3/2	*	*M3/2	*	*M3/2	*
1.r	.	1.r	.	1.r	.	1.r	.	2A/	Can-	2g\	Can-	2cc\	Can-	2cc\	Can-
.	.	.	.	.	.	.	.	2A/	-ti-	2g\	-ti-	2cc\	-ti-	2cc\	-ti-
!	!	!	!	!	!	!	!	!	!	!LO:TX:b:t=P:problem:# below	!	!	!	!	!
.	.	.	.	.	.	.	.	2d\	-cis	2f#X\	-cis	4a\	-cis	2dd\	-cis
.	.	.	.	.	.	.	.	.	.	.	.	4b\	.	.	.
=12-	=12-	=12-	=12-	=12-	=12-	=12-	=12-	=12-	=12-	=12-	=12-	=12-	=12-	=12-	=12-
2c/	Can-	2g\	Can-	2cc\	Can-	2cc\	Can-	2c/	San-	2g\	San-	2cc\	san-	2ee\	san-
2c/	-ti-	2g\	-ti-	2cc\	-ti-	2cc\	-ti-	2c/	-ctam	2g\	-ctam	2cc\	-ctam	2ee\	-ctam
2G/	-cis	2g\	-cis	2b\	-cis	2dd\	-cis	2r	.	2r	.	2r	.	2r	.
=13-	=13-	=13-	=13-	=13-	=13-	=13-	=13-	=13-	=13-	=13-	=13-	=13-	=13-	=13-	=13-
2c/	San-	2g\	San-	2cc\	San-	2ee\	san-	2c/	can-	2g\	can-	2cc\	can-	2ee\	can-
2c/	-ctam	2g\	-ctam	2cc\	-ctam	2ee\	-ctam	2c/	-ti-	2g\	-ti-	2cc\	-ti-	2ee\	-ti-
2r	.	2r	.	2r	.	2r	.	2F/	-cis	2a\	-cis	2cc\	-cis	2ff\	-cis
=14-	=14-	=14-	=14-	=14-	=14-	=14-	=14-	=14-	=14-	=14-	=14-	=14-	=14-	=14-	=14-
2c/	can-	2g\	can-	2cc\	can-	2ee\	can-	2c/	san-	2g\	san-	2cc\	san-	2gg\	san-
2c/	-ti-	2g\	-ti-	2cc\	-ti-	2ee\	-ti-	2c/	-ctam	2g\	-ctam	2cc\	-ctam	2gg\	-ctam
2F/	-cis	2a\	-cis	2cc\	-cis	2ff\	-cis	2r	.	2r	.	2r	.	2r	.
=15-	=15-	=15-	=15-	=15-	=15-	=15-	=15-	=15-	=15-	=15-	=15-	=15-	=15-	=15-	=15-
*M2/2	*	*M2/2	*	*M2/2	*	*M2/2	*	*M2/2	*	*M2/2	*	*M2/2	*	*M2/2	*
*met(C|)	*	*met(C|)	*	*met(C|)	*	*met(C|)	*	*met(C|)	*	*met(C|)	*	*met(C|)	*	*met(C|)	*
2c/	San-	2g\	San-	2cc\	San-	2ee\	san-	2r	.	2r	.	2r	.	2r	.
2c/	-ctam	2g\	-ctam	2cc\	-ctam	2ee\	-ctam	4c/	ce-	4g\	ce-	4cc\	ce-	4ee\	ce-
!	!	!	!	!	!	!	!	!	!	!	!	!	!	!LO:SIC:v:t=custos ff	!
.	.	.	.	.	.	.	.	4c/	-le-	4g\	-le-	4cc\	-le-	4ee\	-le-
=16-	=16-	=16-	=16-	=16-	=16-	=16-	=16-	=16-	=16-	=16-	=16-	=16-	=16-	=16-	=16-
!	!	!	!	!	!	!	!	!	!	!	!	!	!	!LO:LB:g=original	!
2r	.	2r	.	2r	.	2r	.	8F/L	-bre-	2a\	-bre-	2cc\	-bre-	2ff\	-bre-
.	.	.	.	.	.	.	.	8G/	.	.	.	.	.	.	.
.	.	.	.	.	.	.	.	8A/	.	.	.	.	.	.	.
!	!	!	!	!	!	!	!	!LO:SIC:v:t=custos c	!	!	!	!	!	!	!
.	.	.	.	.	.	.	.	8B/J	.	.	.	.	.	.	.
!	!	!	!	!	!	!	!	!LO:LB:g=original	!	!	!	!	!	!	!
4c/	ce-	4g\	ce-	4cc\	ce-	4ee\	ce-	2c/	-mus	2g\	-mus	2cc\	-mus	2ee\	-mus
4c/	-le-	4g\	-le-	4cc\	-le-	4ee\	-le-	.	.	.	.	.	.	.	.
=17-	=17-	=17-	=17-	=17-	=17-	=17-	=17-	=17-	=17-	=17-	=17-	=17-	=17-	=17-	=17-
!	!	!	!	!	!	!	!	!	!	!	!	!LO:SIC:v:t=custos ee	!	!	!
2f\	-bre-	2a\	-bre-	4b\	-bre-	2ff\	-bre-	2r	.	2r	.	2r	.	2r	.
.	.	.	.	4cc\	.	.	.	.	.	.	.	.	.	.	.
!	!	!	!	!	!	!	!	!	!	!	!	!LO:LB:g=original	!	!	!
2c/	-mus	2g\	-mus	2cc\	-mus	2ee\	-mus	4c/	ce-	4g\	ce-	4ee\	ce-	4gg\	ce-
.	.	.	.	.	.	.	.	4c/	-le-	4g\	-le-	4ee\	-le-	4gg\	-le-
=18-	=18-	=18-	=18-	=18-	=18-	=18-	=18-	=18-	=18-	=18-	=18-	=18-	=18-	=18-	=18-
!	!	!	!	!	!	!	!	!	!	!LO:SIC:v:t=custos g	!	!	!	!	!
2r	.	2r	.	2r	.	2r	.	2f\	-bre-	2a\	-bre-	2cc\	-bre-	2ff\	-bre-
!	!	!	!	!	!	!	!	!	!	!LO:LB:g=original	!	!	!	!	!
4c/	ce-	4g\	ce-	4cc\	ce-	4ee\	ce-	2c/	-mus	2g\	-mus	2cc\	-mus	2ee\	-mus
!LO:SIC:v:t=custos f	!	!	!	!	!	!	!	!	!	!	!	!	!	!	!
4c/	-le-	4g\	-le-	4cc\	-le-	4ee\	-le-	.	.	.	.	.	.	.	.
=19-	=19-	=19-	=19-	=19-	=19-	=19-	=19-	=19-	=19-	=19-	=19-	=19-	=19-	=19-	=19-
!LO:LB:g=original	!	!	!	!	!	!LO:SIC:v:t=custos ee	!	!	!	!	!	!	!	!	!
2f\	-bre-	2a\	-bre-	4a\	-bre-	2ff\	-bre-	2r	.	2r	.	2r	.	2r	.
!	!	!	!	!LO:SIC:v:t=custos cc	!	!	!	!	!	!	!	!	!	!	!
.	.	.	.	4b\	.	.	.	.	.	.	.	.	.	.	.
!	!	!	!	!LO:LB:g=original	!	!LO:PB:g=original	!	!	!	!	!	!	!	!	!
4c/	-mus	4g\	-mus	4cc\	-mus	4ee\	-mus	4c/	ce-	4g\	ce-	4cc\	ce-	4ee\	ce-
8c/L	ce-	8e/L	ce-	8cc\L	ce-	8cc\L	ce-	4c/	-le-	4g\	-le-	4cc\	-le-	4ee\	-le-
!	!	!LO:SIC:v:t=custos c	!	!	!	!	!	!	!	!	!	!	!	!	!
8c/J	-le-	8e/J	-le-	8cc\J	-le-	8cc\J	-le-	.	.	.	.	.	.	.	.
=20-	=20-	=20-	=20-	=20-	=20-	=20-	=20-	=20-	=20-	=20-	=20-	=20-	=20-	=20-	=20-
!	!	!LO:LB:g=original	!	!	!	!	!	!	!	!	!	!	!	!	!
2f\	-bre-	2.c/	-bre-	2.cc\	-bre-	4cc\	-bre-	8F/L	-bre-	2a\	-bre-	4a\	-bre-	2ff\	-bre-
.	.	.	.	.	.	.	.	8G/	.	.	.	.	.	.	.
.	.	.	.	.	.	4dd\	.	8A/	.	.	.	4b\	.	.	.
.	.	.	.	.	.	.	.	8B/J	.	.	.	.	.	.	.
8c\L	-mus	.	.	.	.	2ee\	.	2c/	-mus	2g\	-mus	1cc\	-mus	2.gg\	.
8d\	.	.	.	.	.	.	.	.	.	.	.	.	.	.	.
8e\	.	4g\	mus	4g/	.	.	.	.	.	.	.	.	.	.	.
8f\J	.	.	.	.	.	.	.	.	.	.	.	.	.	.	.
=21-	=21-	=21-	=21-	=21-	=21-	=21-	=21-	=21-	=21-	=21-	=21-	=21-	=21-	=21-	=21-
1g	.	1g	ce-	2b\	-mus	2dd,\	-mus	1G	An-	1g	An-	.	.	.	.
.	.	.	.	.	.	.	.	.	.	.	.	.	.	8ff\L	.
.	.	.	.	.	.	.	.	.	.	.	.	.	.	8ee\J	.
.	.	.	.	2g/	An-	4dd\	ce-	.	.	.	.	2b\	An-	2dd\	.
.	.	.	.	.	.	4dd\	-le-	.	.	.	.	.	.	.	.
=22-	=22-	=22-	=22-	=22-	=22-	=22-	=22-	=22-	=22-	=22-	=22-	=22-	=22-	=22-	=22-
4c/	An-	2g\	-le-	2g,/	-nam	2cc\	-bre-	1.c	-nam	2g\	-nam	2cc,\	-nam	4ee\	-mus
!	!	!	!	!	!	!	!	!	!	!	!	!	!	!LO:TX:t=P:problem:niewyraźne źródło	!
4d\	.	.	.	.	.	.	.	.	.	.	.	.	.	4ff\	.
4e\	.	2cc\	-bre-	4cc\	cu-	2ee\	-mus	.	.	4g\	ce-	2ee\	cu-	2.gg\	An-
4c/	.	.	.	4b\	-i	.	.	.	.	4g\	-le-	.	.	.	.
=23-	=23-	=23-	=23-	=23-	=23-	=23-	=23-	=23-	=23-	=23-	=23-	=23-	=23-	=23-	=23-
1d	.	2a\	-mus	4a\	ne-	1dd	An-	.	.	2a\	-bre-	4dd\	-i	.	.
.	.	.	.	4g/	-pos-	.	.	.	.	.	.	4cc\	ne-	8ff\L	.
.	.	.	.	.	.	.	.	.	.	.	.	.	.	8ee\J	.
!	!	!	!	!	!	!	!	!	!	!	!	!	!	!LO:TX:b:t=P:problem:# below	!
.	.	2d/	An-	2a\	-cas-	.	.	2d\	cu-	2a\	-mus	4b\	-pos-	2ff#X\	.
.	.	.	.	.	.	.	.	.	.	.	.	4a\	-cas-	.	.
=24-	=24-	=24-	=24-	=24-	=24-	=24-	=24-	=24-	=24-	=24-	=24-	=24-	=24-	=24-	=24-
1.G	-nam	1d	-nam.	2b\	-tae	1dd	-nam	4d\	-i	1g	An-	2b\	-tae	2gg\	-nam
.	.	.	.	.	.	.	.	4c/	ne-	.	.	.	.	.	.
.	.	.	.	2b\	De-	.	.	4B/	-pos-	.	.	2b\	De-	2dd\	cu-
.	.	.	.	.	.	.	.	4A/	-cas-	.	.	.	.	.	.
=25-	=25-	=25-	=25-	=25-	=25-	=25-	=25-	=25-	=25-	=25-	=25-	=25-	=25-	=25-	=25-
.	.	1r	.	1g	-us	2dd\	cu-	2B/	-tae	1g	-nam	2g/	-us	4dd\	-i
.	.	.	.	.	.	.	.	.	.	.	.	.	.	4cc\	ne-
2g\	cu-	.	.	.	.	4dd\	-i	2B/	De-	.	.	4dd\	cas-	4b/	-pos-
!	!	!	!	!	!	!	!	!	!	!	!	!	!	!LO:SIC:v:t=custos b	!
.	.	.	.	.	.	4cc\	ne-	.	.	.	.	4cc\	.	4a/	-ca-
=26-	=26-	=26-	=26-	=26-	=26-	=26-	=26-	=26-	=26-	=26-	=26-	=26-	=26-	=26-	=26-
!	!	!	!	!	!	!	!	!	!	!	!	!	!	!LO:LB:g=original	!
4g\	-i	2r	.	2r	.	2b/	-pos-	1G	-us	2r	.	4b\	-tae	2b/	-stae
4f\	ne-	.	.	.	.	.	.	.	.	.	.	4a\	.	.	.
4e\	-po-	2g\	cu-	2cc\	cu-	2.ee\	-cas-	.	.	2g\	cu-	2b\	De-	2b/	de-
4d\	-cas-	.	.	.	.	.	.	.	.	.	.	.	.	.	.
=27-	=27-	=27-	=27-	=27-	=27-	=27-	=27-	=27-	=27-	=27-	=27-	=27-	=27-	=27-	=27-
!	!	!	!	!	!	!	!	!	!	!	!	!LO:SIC:v:t=custos cc	!	!	!
2e\	-tae	4g\	-i	2.cc\	-i	.	.	2r	.	4g\	-i	1g	-us	1g	-us
.	.	4f\	ne-	.	.	4dd\	.	.	.	4fny\	ne-	.	.	.	.
2e\	De-	4e/	-pos-	.	.	2b/	-tae	2g\	cas-	4e/	-pos-	.	.	.	.
.	.	4d/	-cas-	4b\	.	.	.	.	.	4d/	-cas-	.	.	.	.
=28-	=28-	=28-	=28-	=28-	=28-	=28-	=28-	=28-	=28-	=28-	=28-	=28-	=28-	=28-	=28-
!	!	!	!	!	!	!	!	!LO:SIC:v:t=custos c	!	!	!	!LO:LB:g=original	!	!	!
1c	-us	2e/	-tae	4a\	ne-	1cc	De-	2e\	-tae	2e/	-tae	2r	.	2r	.
.	.	.	.	4g/	-pos-	.	.	.	.	.	.	.	.	.	.
!	!	!	!	!	!	!	!	!LO:LB:g=original	!	!	!	!	!	!	!
.	.	2e/	De-	4a\	-ca-	.	.	2c/	De-	2e/	De-	2cc\	cu-	2gg\	cu-
.	.	.	.	4b\	.	.	.	.	.	.	.	.	.	.	.
=29-	=29-	=29-	=29-	=29-	=29-	=29-	=29-	=29-	=29-	=29-	=29-	=29-	=29-	=29-	=29-
2r	.	2c/	-us	2cc\	.	1g	-us	0d	-us	1c	-us	2.cc\	-i	4gg\	-i
.	.	.	.	.	.	.	.	.	.	.	.	.	.	4ffny\	ne-
2c/	cu-	2cc\	cu-	2g/	-stae	.	.	.	.	.	.	.	.	4ee\	-pos-
.	.	.	.	.	.	.	.	.	.	.	.	4b\	.	4dd\	-cas-
=30-	=30-	=30-	=30-	=30-	=30-	=30-	=30-	=30-	=30-	=30-	=30-	=30-	=30-	=30-	=30-
4c/	-i	2.cc\	-i	4g/	De-	1r	.	.	.	2r	.	4a\	ne-	2ee\	-tae
4B/	ne-	.	.	4a\	.	.	.	.	.	.	.	4g/	.	.	.
4A/	-pos-	.	.	4b\	.	.	.	.	.	2cc\	cu-	4a\	-pos-	2ee\	De-
!LO:SIC:v:t=custos A	!	!	!	!LO:SIC:v:t=custos a	!	!	!	!	!	!	!	!	!	!	!
4G/	-ca-	4b\	ne-	4g/	.	.	.	.	.	.	.	4b\	.	.	.
=31-	=31-	=31-	=31-	=31-	=31-	=31-	=31-	=31-	=31-	=31-	=31-	=31-	=31-	=31-	=31-
!LO:LB:g=original	!	!	!	!LO:PB:g=original	!	!	!	!	!	!	!	!	!	!	!
2A/	-stae	4a\	-pos-	4a\	.	2r	.	2r	.	4cc\	-i	2cc\	-cas-	1cc	-us
!	!	!	!	!	!	!	!	!	!	!LO:SIC:v:t=custos a	!	!	!	!	!
.	.	4g\	-cas-	4b\	.	.	.	.	.	4b\	ne-	.	.	.	.
!	!	!	!	!	!	!	!	!	!	!LO:LB:g=original	!	!	!	!	!
2A/	De-	2f\	-tae	4cc\	.	2cc\	cu-	2c/	Cu-	4a\	-pos-	2a\	-tae	.	.
.	.	.	.	4a\	.	.	.	.	.	4g\	-cas-	.	.	.	.
=32-	=32-	=32-	=32-	=32-	=32-	=32-	=32-	=32-	=32-	=32-	=32-	=32-	=32-	=32-	=32-
4G/	.	2.cc\	De-	4b\	.	4cc\	-i	4c/	-i	1.a	-tae	2b\	De-	2r	.
4A/	.	.	.	2cc\	.	4dd\	ne-	4B/	ne-	.	.	.	.	.	.
!	!	!	!	!	!	!LO:SIC:v:t=custos ff	!	!	!	!	!	!	!	!	!
4B/	.	.	.	.	.	2ee\	-pos-	4A/	-pos-	.	.	2g/	-us	2cc\	cu-
4G/	.	4b\	.	4b\	-us.	.	.	4G/	-cas-	.	.	.	.	.	.
=33-	=33-	=33-	=33-	=33-	=33-	=33-	=33-	=33-	=33-	=33-	=33-	=33-	=33-	=33-	=33-
!	!	!	!	!	!	!LO:LB:g=original	!	!	!	!	!	!	!	!	!
1F	-us.	4a\	.	1cc	.	2.ff\	-cas-	2A/	-tae	.	.	2r	.	4cc\	-i
.	.	4g\	.	.	.	.	.	.	.	.	.	.	.	4b/	ne-
!	!	!LO:SIC:v:t=custos cc	!	!	!	!	!	!	!	!	!	!	!	!	!
.	.	2f\	-us.	.	.	.	.	2A/	De-	2f\	De-	2cc\	cu-	4a/	-pos-
.	.	.	.	.	.	8ee\L	.	.	.	.	.	.	.	4g/	-ca-
.	.	.	.	.	.	8dd\J	.	.	.	.	.	.	.	.	.
=34-	=34-	=34-	=34-	=34-	=34-	=34-	=34-	=34-	=34-	=34-	=34-	=34-	=34-	=34-	=34-
!	!	!LO:PB:g=original	!	!	!	!	!	!	!	!	!	!	!	!	!
2r	.	2cc\	cu-	1r	.	1cc	-tae	2.F/	.	1f	-us	2.cc\	-i	2.a/	-stae
2c/	cu-	4b\	-i	.	.	.	.	.	.	.	.	.	.	.	.
.	.	4a\	.	.	.	.	.	4G/	.	.	.	4b\	.	4b/	.
=35-	=35-	=35-	=35-	=35-	=35-	=35-	=35-	=35-	=35-	=35-	=35-	=35-	=35-	=35-	=35-
4c/	-i	1g	ne-	2r	.	2.cc\	De-	4A/	.	2e/	cu-	4a\	ne-	4cc\	.
4B/	.	.	.	.	.	.	.	4B/	.	.	.	4b\	.	4dd\	.
4A/	ne-	.	.	2cc\	cu-	.	.	2c/	.	1a\	-i	4cc\	-pos-	2ee\	.
4G/	-pos-	.	.	.	.	4b/	.	.	.	.	.	4b\	.	.	.
=36-	=36-	=36-	=36-	=36-	=36-	=36-	=36-	=36-	=36-	=36-	=36-	=36-	=36-	=36-	=36-
2F/	-cas-	2a,\	-pos	4cc\	-i	2a/	-us	1A	-us	.	.	4a\	-ca-	4dd\	De-
!	!	!	!	!	!	!	!	!	!	!	!	!	!	!LO:SIC:v:t=custos cc	!
.	.	.	.	4b\	ne-	.	.	.	.	.	.	4b\	.	4cc\	.
!	!	!	!	!	!	!	!	!	!	!	!	!	!	!LO:LB:g=original	!
2A/	-tae	2f\	ca-	2a\	-pos-	2ee\	cas-	.	.	2f\	ne-	1cc\	.	1cc\	.
=37-	=37-	=37-	=37-	=37-	=37-	=37-	=37-	=37-	=37-	=37-	=37-	=37-	=37-	=37-	=37-
0G	De-	1d	-stae	2g/	-ca-	4ff\	-rae	2r	.	1g	-pos-	.	.	.	.
.	.	.	.	.	.	4ee\	.	.	.	.	.	.	.	.	.
.	.	.	.	4g/	-stae	4dd\	.	2d\	cas-	.	.	2g/	-stae	4b/	.
.	.	.	.	4a\	.	4cc\	.	.	.	.	.	.	.	4a/	.
=38-	=38-	=38-	=38-	=38-	=38-	=38-	=38-	=38-	=38-	=38-	=38-	=38-	=38-	=38-	=38-
.	.	1g	De-	2b\	De-	1dd	De-	4g\	-tae	2g\	-cas-	1dd	De-	2b/	.
.	.	.	.	.	.	.	.	4f\	De-	.	.	.	.	.	.
.	.	.	.	2g/	.	.	.	4e\	.	2g\	-tae	.	.	2b/	.
.	.	.	.	.	.	.	.	4d\	.	.	.	.	.	.	.
=39-	=39-	=39-	=39-	=39-	=39-	=39-	=39-	=39-	=39-	=39-	=39-	=39-	=39-	=39-	=39-
1c	-us	1g	-us	1g	-us	1ee	-us	1c	-us	2.e/	De-	1cc	-us	2cc\	-us
.	.	.	.	.	.	.	.	.	.	.	.	.	.	2gg\	est
.	.	.	.	.	.	.	.	.	.	4f\	.	.	.	.	.
=40-	=40-	=40-	=40-	=40-	=40-	=40-	=40-	=40-	=40-	=40-	=40-	=40-	=40-	=40-	=40-
00r	.	00r	.	00r	.	00r	.	2r	.	1g	-us	1r	.	2.dd\	puel-
!	!	!	!	!	!	!	!	!LO:SIC:v:t=custos d	!	!	!	!	!	!	!
.	.	.	.	.	.	.	.	2g\	est	.	.	.	.	.	.
.	.	.	.	.	.	.	.	.	.	.	.	.	.	4ee\	-[[lae]]
=41-	=41-	=41-	=41-	=41-	=41-	=41-	=41-	=41-	=41-	=41-	=41-	=41-	=41-	=41-	=41-
!	!	!	!	!	!	!	!	!LO:LB:g=original	!	!	!	!	!	!	!
.	.	.	.	.	.	.	.	2.d\	puel-	2r	.	2r	.	1.ff	.
!	!	!	!	!	!	!	!	!	!	!	!	!LO:SIC:v:t=custos a	!	!	!
.	.	.	.	.	.	.	.	.	.	2a\	est	2dd\	est	.	.
.	.	.	.	.	.	.	.	4d\	.	.	.	.	.	.	.
=42-	=42-	=42-	=42-	=42-	=42-	=42-	=42-	=42-	=42-	=42-	=42-	=42-	=42-	=42-	=42-
!	!	!	!	!	!	!	!	!	!	!	!	!LO:LB:g=original	!	!	!
.	.	.	.	.	.	.	.	2f\	.	4f\	puel-	2a\	pu-	.	.
.	.	.	.	.	.	.	.	.	.	4g\	.	.	.	.	.
.	.	.	.	.	.	.	.	2f\	-lae	2a\	-lae	4a\	-el-	2cc\	-lae
.	.	.	.	.	.	.	.	.	.	.	.	4b\	-lae	.	.
=43-	=43-	=43-	=43-	=43-	=43-	=43-	=43-	=43-	=43-	=43-	=43-	=43-	=43-	=43-	=43-
.	.	.	.	.	.	.	.	2.c/	Fi-	2.g\	Fi-	2.cc\	Fi-	2.ee\	Fo-
.	.	.	.	.	.	.	.	4c/	-li-	4g\	-li-	4cc\	-li-	4ee\	-li-
=44-	=44-	=44-	=44-	=44-	=44-	=44-	=44-	=44-	=44-	=44-	=44-	=44-	=44-	=44-	=44-
2r	.	2r	.	2r	.	2r	.	2G/	-us	2g\	-us	2b\	-us	2dd\	-us
!	!	!	!	!	!	!	!	!	!	!LO:SIC:v:t=custos g	!	!	!	!	!
2c/	no-	2g\	no-	2cc\	no-	2ee\	no-	2r	.	2r	.	2r	.	2r	.
=45-	=45-	=45-	=45-	=45-	=45-	=45-	=45-	=45-	=45-	=45-	=45-	=45-	=45-	=45-	=45-
!	!	!	!	!	!	!	!	!	!	!LO:LB:g=original	!	!	!	!	!
2A/	-bis	2.a\	-bis	2cc\	-bis	2ee\	-bis	1r	.	1r	.	1r	.	1r	.
2d\	de-	.	.	2dd\	de-	2ff\	de-	.	.	.	.	.	.	.	.
.	.	4b\	de-	.	.	.	.	.	.	.	.	.	.	.	.
=46-	=46-	=46-	=46-	=46-	=46-	=46-	=46-	=46-	=46-	=46-	=46-	=46-	=46-	=46-	=46-
1c	-cus	1cc	-cus	2ee\	-cus	1ee	-cus	2r	.	2r	.	2r	.	2r	.
.	.	.	.	2r	.	.	.	2c/	hinc	2g\	hinc	2.cc\	hinc	2ee\	hinc
=47-	=47-	=47-	=47-	=47-	=47-	=47-	=47-	=47-	=47-	=47-	=47-	=47-	=47-	=47-	=47-
1r	.	1r	.	1r	.	1r	.	1G	et	1g	et	.	.	1dd	et
.	.	.	.	.	.	.	.	.	.	.	.	8b\L	.	.	.
.	.	.	.	.	.	.	.	.	.	.	.	8a\J	.	.	.
.	.	.	.	.	.	.	.	.	.	.	.	2b\	et	.	.
=48-	=48-	=48-	=48-	=48-	=48-	=48-	=48-	=48-	=48-	=48-	=48-	=48-	=48-	=48-	=48-
2r	.	2r	.	2r	.	2r	.	2c/	hinc	2g\	hinc	2cc\	hinc	2ee\	hinc
!	!	!	!	!LO:SIC:v:t=custos a	!	!	!	!	!	!	!	!	!	!LO:SIC:v:t=custos ff	!
2c/	spes	2e/	spes	2cc\	spes	2ee\	spes	2c/	spes	2g\	spes	2cc\	spes	2gg\	spes
=49-	=49-	=49-	=49-	=49-	=49-	=49-	=49-	=49-	=49-	=49-	=49-	=49-	=49-	=49-	=49-
!	!	!	!	!LO:LB:g=original	!	!	!	!	!	!	!	!	!	!LO:PB:g=original	!
1f	cer-	1f	cer-	2.a\	cer-	2.cc\	cer-	4F/	cer-	1a	cer-	1cc	cer-	2.ff\	cer-
.	.	.	.	.	.	.	.	4G/	.	.	.	.	.	.	.
.	.	.	.	.	.	.	.	4A/	.	.	.	.	.	.	.
.	.	.	.	4b\	.	4dd\	.	4B/	.	.	.	.	.	8ee\L	-ta-
.	.	.	.	.	.	.	.	.	.	.	.	.	.	8dd\J	.
=50-	=50-	=50-	=50-	=50-	=50-	=50-	=50-	=50-	=50-	=50-	=50-	=50-	=50-	=50-	=50-
2c/	-ta	2.g\	-ta	2cc\	-ta	2ee\	-ta	2c/	-ta	2g\	-ta	2cc\	-ta	4ee\	.
.	.	.	.	.	.	.	.	.	.	.	.	.	.	4ff\	.
!	!	!	!	!	!	!LO:SIC:v:t=custos dd	!	!	!	!	!	!	!	!	!
2g\	sa-	.	.	1dd\	sa-	2dd\	sa-	2G/	sa-	2g\	sa-	2b\	sa-	2.gg\	-Sa-
.	.	4d/	sa-	.	.	.	.	.	.	.	.	.	.	.	.
=51-	=51-	=51-	=51-	=51-	=51-	=51-	=51-	=51-	=51-	=51-	=51-	=51-	=51-	=51-	=51-
!	!	!	!	!	!	!LO:LB:g=original	!	!	!	!	!	!	!	!	!
1d	-lu-	1d	-lu-	.	.	1dd	-lu-	1d	-lu-	1a	-lu-	1a	-lu-	.	.
.	.	.	.	.	.	.	.	.	.	.	.	.	.	8ff\L	.
.	.	.	.	.	.	.	.	.	.	.	.	.	.	8ee\J	.
!	!	!	!	!	!	!	!	!	!	!	!	!	!	!LO:TX:b:t=P:problem:# below	!
.	.	.	.	2dd\	-lu-	.	.	.	.	.	.	.	.	2ff#X\	-lu-
=52-	=52-	=52-	=52-	=52-	=52-	=52-	=52-	=52-	=52-	=52-	=52-	=52-	=52-	=52-	=52-
!LO:SIC:v:t=custos c	!	!LO:SIC:v:t=custos g	!	!	!	!	!	!	!	!	!	!	!	!	!
1g	-tis	1d	-tis	1b	-tis	1dd	-tis	1G	-tis	1g	-tis	1b	-tis	1gg	-tis
=53-	=53-	=53-	=53-	=53-	=53-	=53-	=53-	=53-	=53-	=53-	=53-	=53-	=53-	=53-	=53-
*M3/2	*	*M3/2	*	*M3/2	*	*M3/2	*	*M3/2	*	*M3/2	*	*M3/2	*	*M3/2	*
!LO:PB:g=original	!	!LO:LB:g=original	!	!	!	!	!	!	!	!	!	!LO:SIC:v:t=custos cc	!	!	!
2c/	Laus	2g\	Laus	2cc\	Laus	2cc\	Laus	1.r	.	1.r	.	1.r	.	1.r	.
2A/	Pa-	4e/	Pa-	2cc\	pa-	2cc\	pa-	.	.	.	.	.	.	.	.
.	.	4f\	.	.	.	.	.	.	.	.	.	.	.	.	.
2G/	-tri	2g\	-tri	2b\	-tri	2dd\	-tri	.	.	.	.	.	.	.	.
=54-	=54-	=54-	=54-	=54-	=54-	=54-	=54-	=54-	=54-	=54-	=54-	=54-	=54-	=54-	=54-
!	!	!	!	!	!	!	!	!	!	!	!	!LO:LB:g=original	!	!	!
2c/	sit	2g\	sit	2cc\	sit	2ee\	sit	2c/	Laus	2e/	Laus	2cc\	Laus	2cc\	Laus
2r	.	2r	.	2r	.	2r	.	2A/	Pa-	4e/	Pa-	2cc\	Pa-	2cc\	Pa-
.	.	.	.	.	.	.	.	.	.	4f\	.	.	.	.	.
!	!	!	!	!	!	!	!	!LO:SIC:v:t=custos c	!	!	!	!	!	!	!
2r	.	2r	.	2r	.	2r	.	2G/	-tri	2g\	-tri	2b\	-tri	2dd\	-tri
=55-	=55-	=55-	=55-	=55-	=55-	=55-	=55-	=55-	=55-	=55-	=55-	=55-	=55-	=55-	=55-
!	!	!	!	!	!	!	!	!LO:LB:g=original	!	!	!	!	!	!	!
2c/	cum	2g\	cum	2cc\	cum	2ee\	cum	2c/	sit	2g\	sit	2cc\	sit	2ee\	sit
2A/	Fi-	2.a\	Fi-	2cc\	Fi-	2ee\	Fi-	2r	.	2r	.	2r	.	2r	.
2d\	-li-	.	.	2dd\	-li-	2ff\	-li-	2r	.	2r	.	2r	.	2r	.
.	.	4d/	-li-	.	.	.	.	.	.	.	.	.	.	.	.
=56-	=56-	=56-	=56-	=56-	=56-	=56-	=56-	=56-	=56-	=56-	=56-	=56-	=56-	=56-	=56-
2c/	-o	2g\	-o	2ee\	-o	2gg\	-o	2c/	cu	2g\	cum	2cc\	cum	2ee\	cum
2r	.	2r	.	2r	.	2r	.	2A/	Fi-	2a\	Fi-	2cc\	Fi-	2ee\	Fi-
2r	.	2r	.	2r	.	2r	.	2d\	-li-	2d/	-li-	2dd\	-li-	2ffny\	-li-
=57-	=57-	=57-	=57-	=57-	=57-	=57-	=57-	=57-	=57-	=57-	=57-	=57-	=57-	=57-	=57-
*M2/2	*	*M2/2	*	*M2/2	*	*M2/2	*	*M2/2	*	*M2/2	*	*M2/2	*	*M2/2	*
*met(C|)	*	*met(C|)	*	*met(C|)	*	*met(C|)	*	*met(C|)	*	*met(C|)	*	*met(C|)	*	*met(C|)	*
!	!	!	!	!	!	!	!	!	!	!LO:SIC:v:t=custos g	!	!	!	!	!
2r	.	2r	.	2r	.	2r	.	2c,/	-o	2g\	-o	2ee,\	-o	2gg,\	-o
!	!	!	!	!	!	!	!	!	!	!LO:LB:g=original	!	!	!	!	!
2c/	cum-	2e/	cum-	2cc\	cum-	2ee\	cum-	2c/	cum-	2g\	cum-	2ee\	cum-	2gg\	cum
=58-	=58-	=58-	=58-	=58-	=58-	=58-	=58-	=58-	=58-	=58-	=58-	=58-	=58-	=58-	=58-
!	!	!	!	!	!	!	!	!	!	!	!	!	!	!LO:SIC:v:t=custos ee	!
2g\	-q(ue)	2g\	-q(ue)	2b\	-q(ue)	2dd\	-q(ue)	2G/	-q(ue)	2g\	-q(ue)	2dd\	-q(ue)	2gg\	q(ue)
!	!	!	!	!	!	!	!	!	!	!	!	!	!	!LO:LB:g=original	!
2c/	am-	2g\	am-	2cc\	am-	2ee\	am-	2c/	am-	2e/	am-	2ee\	am-	2ee\	am-
=59-	=59-	=59-	=59-	=59-	=59-	=59-	=59-	=59-	=59-	=59-	=59-	=59-	=59-	=59-	=59-
2f\	-bo-	2f\	-bo-	2.cc\	-bo-	2cc\	-bo-	8F/L	-bo-	2a\	-bo-	2cc\	-bo-	2ff\	-bo-
.	.	.	.	.	.	.	.	8G/	.	.	.	.	.	.	.
.	.	.	.	.	.	.	.	8A/	.	.	.	.	.	.	.
.	.	.	.	.	.	.	.	8B/J	.	.	.	.	.	.	.
2c/	-rum	2g\	-rum	.	.	2cc\	-rum	2c/	-rum	2g\	-rum	2cc\	-rum	2ee\	-rum
!	!	!	!	!LO:SIC:v:t=custos b	!	!	!	!	!	!	!	!	!	!	!
.	.	.	.	4g/	-rum	.	.	.	.	.	.	.	.	.	.
=60-	=60-	=60-	=60-	=60-	=60-	=60-	=60-	=60-	=60-	=60-	=60-	=60-	=60-	=60-	=60-
!	!	!	!	!LO:LB:g=original	!	!	!	!	!	!	!	!	!	!	!
2.g\	Spi-	2.g\	spi-	2.b\	spi-	2.dd\	spi-	2.G/	Spi-	2.g\	Spi-	2.b\	Spi-	2.dd\	Spi-
4g\	-ri-	4d/	-ri-	4b\	-ri-	4dd\	-ri-	4G/	-ri-	4g\	-ri-	4b\	-ri-	4dd\	-ri-
=61-	=61-	=61-	=61-	=61-	=61-	=61-	=61-	=61-	=61-	=61-	=61-	=61-	=61-	=61-	=61-
!LO:SIC:v:t=custos c	!	!	!	!	!	!	!	!	!	!	!	!	!	!	!
1c	-tu	1g	-tu	1g	-tu	1cc	-tu	1c	-tu.	1g	-tu	1cc	-tu	1ee,	-tu
=62-	=62-	=62-	=62-	=62-	=62-	=62-	=62-	=62-	=62-	=62-	=62-	=62-	=62-	=62-	=62-
!LO:LB:g=original	!	!	!	!	!	!	!	!	!	!	!	!	!	!	!
00r	.	00r	.	00r	.	00r	.	00r	.	00r	.	00r	.	1gg	Vt
=63-	=63-	=63-	=63-	=63-	=63-	=63-	=63-	=63-	=63-	=63-	=63-	=63-	=63-	=63-	=63-
.	.	.	.	.	.	.	.	.	.	.	.	.	.	2ff\	nos
.	.	.	.	.	.	.	.	.	.	.	.	.	.	2ee\	An-
=64-	=64-	=64-	=64-	=64-	=64-	=64-	=64-	=64-	=64-	=64-	=64-	=64-	=64-	=64-	=64-
.	.	.	.	.	.	.	.	.	.	.	.	.	.	1ff	-nae
=65-	=65-	=65-	=65-	=65-	=65-	=65-	=65-	=65-	=65-	=65-	=65-	=65-	=65-	=65-	=65-
.	.	.	.	.	.	.	.	.	.	.	.	.	.	2ee\	suf-
.	.	.	.	.	.	.	.	.	.	.	.	.	.	2ee\	-fra-
=66-	=66-	=66-	=66-	=66-	=66-	=66-	=66-	=66-	=66-	=66-	=66-	=66-	=66-	=66-	=66-
!	!	!LO:SIC:v:t=custos c	!	!	!	!	!	!	!	!	!	!	!	!	!
1r	.	1r	.	1r	.	1r	.	1r	.	1r	.	1r	.	1dd	-gi-
=67-	=67-	=67-	=67-	=67-	=67-	=67-	=67-	=67-	=67-	=67-	=67-	=67-	=67-	=67-	=67-
!	!	!LO:LB:g=original	!	!	!	!	!	!	!	!	!	!	!	!	!
2r	.	2r	.	2r	.	2r	.	2r	.	2r	.	2r	.	1cc	-o
!	!	!	!	!	!	!LO:SIC:v:t=custos ee	!	!	!	!	!	!	!	!	!
2c/	Vt	2e/	Vt	2cc\	Vt	2ee\	Vt	2c/	Vt	2g\	Vt	2cc\	Vt	.	.
=68-	=68-	=68-	=68-	=68-	=68-	=68-	=68-	=68-	=68-	=68-	=68-	=68-	=68-	=68-	=68-
!	!	!	!	!	!	!LO:LB:g=original	!	!	!	!	!	!LO:SIC:v:t=custos a	!	!	!
2c/	nos	2g\	nos	2cc\	nos	2ee\	nos	2c/	nos	2e/	nos	2cc\	nos	00r	.
!	!	!	!	!	!	!	!	!	!	!	!	!LO:PB:g=original	!	!	!
2f\	An-	2f\	An-	2cc\	An-	2ff\	An-	8F/L	An-	2a\	An-	4a\	An-	.	.
.	.	.	.	.	.	.	.	8G/	.	.	.	.	.	.	.
.	.	.	.	.	.	.	.	8A/	.	.	.	4b\	.	.	.
.	.	.	.	.	.	.	.	8B/J	.	.	.	.	.	.	.
=69-	=69-	=69-	=69-	=69-	=69-	=69-	=69-	=69-	=69-	=69-	=69-	=69-	=69-	=69-	=69-
1c	-nae	1g	-nae	1cc	-nae	1ee	-nae	4c/	-nae	1g	-nae	1cc,	-nae	.	.
.	.	.	.	.	.	.	.	4B/	.	.	.	.	.	.	.
.	.	.	.	.	.	.	.	4A/	.	.	.	.	.	.	.
!	!	!	!	!	!	!	!	!LO:SIC:v:t=custos F	!	!	!	!	!	!	!
.	.	.	.	.	.	.	.	4G/	.	.	.	.	.	.	.
=70-	=70-	=70-	=70-	=70-	=70-	=70-	=70-	=70-	=70-	=70-	=70-	=70-	=70-	=70-	=70-
!	!	!	!	!	!	!	!	!LO:PB:g=original	!	!	!	!	!	!	!
2f\	suf-	2f\	suf-	2.cc\	suf-	4cc\	Suf-	8F/L	Suf-	2a\	Suf-	2cc\	Suf-	.	.
.	.	.	.	.	.	.	.	8G/	.	.	.	.	.	.	.
.	.	.	.	.	.	4dd\	.	8A/	.	.	.	.	.	.	.
.	.	.	.	.	.	.	.	8B/J	.	.	.	.	.	.	.
2c/	-fra-	2e/	-fra-	.	.	2ee\	-fra-	2c/	-fra-	2g\	-fra-	2cc\	-fra-	.	.
.	.	.	.	4g/	-fra-	.	.	.	.	.	.	.	.	.	.
=71-	=71-	=71-	=71-	=71-	=71-	=71-	=71-	=71-	=71-	=71-	=71-	=71-	=71-	=71-	=71-
4g\	-gi-	1g	-gi-	1g	-gi-	1dd	-gi-	1G	-gi-	1g	-gi-	1dd	-gi-	.	.
4f\	.	.	.	.	.	.	.	.	.	.	.	.	.	.	.
4e\	.	.	.	.	.	.	.	.	.	.	.	.	.	.	.
4d\	.	.	.	.	.	.	.	.	.	.	.	.	.	.	.
=72-	=72-	=72-	=72-	=72-	=72-	=72-	=72-	=72-	=72-	=72-	=72-	=72-	=72-	=72-	=72-
1c	-o	1g	-o	1g	-o	1ee	-o	1c	-o	1g	-o	1cc	-o	1r	.
=73-	=73-	=73-	=73-	=73-	=73-	=73-	=73-	=73-	=73-	=73-	=73-	=73-	=73-	=73-	=73-
00r	.	00r	.	00r	.	00r	.	00r	.	00r	.	00r	.	1ee	mor-
=74-	=74-	=74-	=74-	=74-	=74-	=74-	=74-	=74-	=74-	=74-	=74-	=74-	=74-	=74-	=74-
.	.	.	.	.	.	.	.	.	.	.	.	.	.	2dd\	-tis
.	.	.	.	.	.	.	.	.	.	.	.	.	.	2cc\	iu-
=75-	=75-	=75-	=75-	=75-	=75-	=75-	=75-	=75-	=75-	=75-	=75-	=75-	=75-	=75-	=75-
.	.	.	.	.	.	.	.	.	.	.	.	.	.	1dd	-vet
=76-	=76-	=76-	=76-	=76-	=76-	=76-	=76-	=76-	=76-	=76-	=76-	=76-	=76-	=76-	=76-
!	!	!	!	!	!	!	!	!	!	!	!	!	!	!LO:SIC:v:t=custos cc	!
.	.	.	.	.	.	.	.	.	.	.	.	.	.	2dd\	in
!	!	!	!	!	!	!	!	!	!	!	!	!	!	!LO:LB:g=original	!
.	.	.	.	.	.	.	.	.	.	.	.	.	.	2cc\	o-
=77-	=77-	=77-	=77-	=77-	=77-	=77-	=77-	=77-	=77-	=77-	=77-	=77-	=77-	=77-	=77-
1r	.	1r	.	1r	.	1r	.	1r	.	1r	.	1r	.	1b	-bi-
=78-	=78-	=78-	=78-	=78-	=78-	=78-	=78-	=78-	=78-	=78-	=78-	=78-	=78-	=78-	=78-
2r	.	2r	.	2r	.	2r	.	2r	.	2r	.	2r	.	1a	-tu
2c/	mor-	2.g\	mor-	2cc\	mor-	2ee\	mor-	2c/	mor-	2g\	mor-	2cc\	mor-	.	.
=79-	=79-	=79-	=79-	=79-	=79-	=79-	=79-	=79-	=79-	=79-	=79-	=79-	=79-	=79-	=79-
!	!	!	!	!	!	!	!	!	!	!LO:SIC:v:t=custos f	!	!	!	!	!
2g\	.	.	.	2.dd\	-tis	4dd\	-tis	2G/	-tis	2g\	-tis	4b\	-tis	00r	.
.	.	4d/	-tis	.	.	4ee\	.	.	.	.	.	4cc\	.	.	.
!	!	!	!	!	!	!	!	!	!	!LO:PB:g=original	!	!	!	!	!
2d\	-tis	2d/	iu-	.	.	2ff\	iu-	2d\	iu-	2f\	iu-	2dd\	iu-	.	.
.	.	.	.	4a\	iu-	.	.	.	.	.	.	.	.	.	.
=80-	=80-	=80-	=80-	=80-	=80-	=80-	=80-	=80-	=80-	=80-	=80-	=80-	=80-	=80-	=80-
!	!	!	!	!	!	!	!	!	!	!	!	!LO:TX:b:t=P:problem:# below	!	!	!
4a\	iu-	1e	-vet	1a	-vet	1ee	-vet	1A	-vet	1a	-vet	1cc#X	-vet	.	.
4g\	.	.	.	.	.	.	.	.	.	.	.	.	.	.	.
4f\	-vet	.	.	.	.	.	.	.	.	.	.	.	.	.	.
4e,\	.	.	.	.	.	.	.	.	.	.	.	.	.	.	.
=81-	=81-	=81-	=81-	=81-	=81-	=81-	=81-	=81-	=81-	=81-	=81-	=81-	=81-	=81-	=81-
4d\	in	2d/	in	2a\	in	2ff\	in	2d\	in	2a\	in	2dd\	in	.	.
4e\	.	.	.	.	.	.	.	.	.	.	.	.	.	.	.
4f\	.	2d/	o-	2a\	o-	2ff\	o-	2d\	o-	1a\	o-	1dd\	o-	.	.
4g\	.	.	.	.	.	.	.	.	.	.	.	.	.	.	.
=82-	=82-	=82-	=82-	=82-	=82-	=82-	=82-	=82-	=82-	=82-	=82-	=82-	=82-	=82-	=82-
2a\	o-	2e/	-bi-	1a	-bi-	1ee	-bi-	1A	-bi-	.	.	.	.	.	.
!	!	!	!	!	!	!	!	!	!	!	!	!LO:TX:b:t=P:problem:# below	!	!	!
2a\	-bi-	2a\	.	.	.	.	.	.	.	2e/	-bi-	2cc#X\	-bi-	.	.
=83-	=83-	=83-	=83-	=83-	=83-	=83-	=83-	=83-	=83-	=83-	=83-	=83-	=83-	=83-	=83-
!	!	!	!	!	!	!	!	!	!	!LO:TX:b:t=P:problem:# below	!	!	!	!	!
2d\	-tu	2a\	-tu	2a\	-tu	2dd\	-tu	2d\	-tu	2f#X\	-tu	2dd\	-tu	2r	.
!LO:SIC:v:t=custos d	!	!	!	!	!	!	!	!	!	!	!	!	!	!	!
2r	.	2r	.	2r	.	2r	.	2r	.	2r	.	2r	.	2dd\	iu-
=84-	=84-	=84-	=84-	=84-	=84-	=84-	=84-	=84-	=84-	=84-	=84-	=84-	=84-	=84-	=84-
!LO:LB:g=original	!	!	!	!	!	!	!	!	!	!	!	!	!	!	!
2r	.	2r	.	2r	.	2r	.	2r	.	2r	.	2r	.	2ee\	-vet
!	!	!	!	!LO:SIC:v:t=custos cc	!	!	!	!	!	!	!	!	!	!	!
2d\	in	2d/	in	2dd\	in	2ff\	in	2d\	in	2a\	in	2dd\	in	2r	.
=85-	=85-	=85-	=85-	=85-	=85-	=85-	=85-	=85-	=85-	=85-	=85-	=85-	=85-	=85-	=85-
!	!	!	!	!LO:LB:g=original	!	!	!	!	!	!	!	!	!	!	!
2a\	o-	2e/	o-	2cc\	o-	2ee\	o-	2A/	o-	2a\	o-	2ee\	o-	1r	.
!	!	!LO:SIC:v:t=custos e	!	!	!	!	!	!	!	!LO:TX:b:t=P:problem:# below	!	!	!	!	!
2e\	-bi-	2e/	-bi-	2b\	-bi-	2ee\	-bi-	2e\	-bi-	2g#X\	-bi-	2b\	-bi-	.	.
=86-	=86-	=86-	=86-	=86-	=86-	=86-	=86-	=86-	=86-	=86-	=86-	=86-	=86-	=86-	=86-
!	!	!LO:LB:g=original	!	!	!	!	!	!	!	!	!	!LO:TX:b:t=P:problem:# below	!	!	!
2a\	-tu	2e/	-tu	2a\	-tu	2ee\	-tu	2A/	-tu	2a\	-tu	2cc#X\	-tu	2r	.
2r	.	2r	.	2r	.	2r	.	2r	.	2r	.	2r	.	2ee\	iu-
=87-	=87-	=87-	=87-	=87-	=87-	=87-	=87-	=87-	=87-	=87-	=87-	=87-	=87-	=87-	=87-
!	!	!	!	!	!	!LO:SIC:v:t=custos ff	!	!	!	!	!	!LO:SIC:v:t=custos dd	!	!LO:TX:b:t=P:problem:# below	!
2r	.	2r	.	2r	.	2r	.	2r	.	2r	.	2r	.	2ff#X\	-vet
!	!	!	!	!	!	!LO:LB:g=original	!	!	!	!	!	!LO:LB:g=original	!	!	!
2d\	in	2d/	in	2a\	in	2ff\	in	2d\	in	2a\	in	2dd\	in	2r	.
=88-	=88-	=88-	=88-	=88-	=88-	=88-	=88-	=88-	=88-	=88-	=88-	=88-	=88-	=88-	=88-
!	!	!	!	!	!	!	!	!	!	!	!	!LO:TX:b:t=P:problem:# below	!	!	!
2a\	o-	2e/	o-	2a\	o-	2ee\	o-	2A/	o-	2a\	o-	2cc#X\	o-	1r	.
!	!	!	!	!	!	!	!	!	!	!	!	!LO:TX:b:t=P:problem:# below	!	!	!
2a\	-bi-	2a\	-bi-	2a\	-bi-	2ee\	-bi-	2A/	-bi-	2e/	-bi-	2cc#X\	-bi-	.	.
=89-	=89-	=89-	=89-	=89-	=89-	=89-	=89-	=89-	=89-	=89-	=89-	=89-	=89-	=89-	=89-
!	!	!	!	!	!	!	!	!LO:SIC:v:t=custos c	!	!LO:TX:b:t=P:problem:# below	!	!	!	!	!
2d\	-tu	2a\	-tu	2a\	-tu	2dd\	-tu	2d\	-tu	2f#X\	-tu	2dd\	-tu	2r	.
!	!	!	!	!	!	!	!	!LO:LB:g=original	!	!	!	!	!	!LO:TX:b:t=P:problem:# below	!
2r	.	2r	.	2r	.	2r	.	2r	.	2r	.	2r	.	2ff#X\	iu-
=90-	=90-	=90-	=90-	=90-	=90-	=90-	=90-	=90-	=90-	=90-	=90-	=90-	=90-	=90-	=90-
2r	.	2r	.	2r	.	2r	.	2r	.	2r	.	2r	.	2gg\	-vet
2c/	in	2.g\	in	2cc\	in	2ee\	in	2c/	in	2gny\	in	2ccny\	in	2gg\	in
=91-	=91-	=91-	=91-	=91-	=91-	=91-	=91-	=91-	=91-	=91-	=91-	=91-	=91-	=91-	=91-
2g\	o-	.	.	2b\	o-	2dd\	o-	2G/	o-	2g\	o-	2dd\	o-	2gg\	o-
.	.	4d/	o-	.	.	.	.	.	.	.	.	.	.	.	.
!	!	!	!	!	!	!	!	!	!	!	!	!	!	!LO:TX:b:t=P:problem:# below	!
2d\	-bi-	2d/	-bi-	2a\	-bi-	2dd\	-bi-	2d\	-bi-	2a\	-bi-	2dd\	-bi-	2ff#X\	-bi-
=92-	=92-	=92-	=92-	=92-	=92-	=92-	=92-	=92-	=92-	=92-	=92-	=92-	=92-	=92-	=92-
2g\	-tu	2d/	-tu	2b,\	-tu	2dd,\	-tu	2G,/	-tu	2g,\	-tu	2dd,\	-tu	2gg\	-tu
!	!	!	!	!	!	!	!	!	!	!LO:SIC:v:t=custos g	!	!	!	!	!
2d\	iu-	2.d/	iu-	2a\	iu-	2dd\	iu-	2d\	iu-	2a\	iu-	2dd\	iu-	2dd\	iu-
=93-	=93-	=93-	=93-	=93-	=93-	=93-	=93-	=93-	=93-	=93-	=93-	=93-	=93-	=93-	=93-
!	!	!	!	!	!	!	!	!	!	!LO:LB:g=original	!	!	!	!	!
2g\	-vet	.	.	2b\	-vet	2dd\	-vet	2G/	-vet	2g\	-vet	2b\	-vet	2dd\	-vet
.	.	4g\	-vet	.	.	.	.	.	.	.	.	.	.	.	.
2g\	in	2g\	in	2g/	in	2dd\	in	2G/	in	2g\	in	2b\	in	2dd\	in
=94-	=94-	=94-	=94-	=94-	=94-	=94-	=94-	=94-	=94-	=94-	=94-	=94-	=94-	=94-	=94-
1.c	o-	1.g	o-	1.g	o-	1.cc	o-	1.c	o-	1.g	o-	1.cc	o-	4ee\	o-
.	.	.	.	.	.	.	.	.	.	.	.	.	.	4ffny\	.
.	.	.	.	.	.	.	.	.	.	.	.	.	.	4gg\	.
.	.	.	.	.	.	.	.	.	.	.	.	.	.	4ff\	.
=95-	=95-	=95-	=95-	=95-	=95-	=95-	=95-	=95-	=95-	=95-	=95-	=95-	=95-	=95-	=95-
.	.	.	.	.	.	.	.	.	.	.	.	.	.	4ee\	.
.	.	.	.	.	.	.	.	.	.	.	.	.	.	4dd\	.
2c/	-bi-	2e/	-bi-	2g/	-bi-	2cc\	-bi-	2c/	-bi-	2g\	-bi-	2cc\	-bi-	2ee\	-bi-
=96-	=96-	=96-	=96-	=96-	=96-	=96-	=96-	=96-	=96-	=96-	=96-	=96-	=96-	=96-	=96-
!LO:N:vis=00	!	!LO:N:vis=00	!	!LO:N:vis=00	!	!LO:N:vis=00	!	!LO:N:vis=00	!	!LO:N:vis=00	!	!LO:N:vis=00	!	!LO:N:vis=00	!
1g;;	-tu	1g;;	-tu	1b;;	-tu	1dd;;	-tu	1G;;	-tu	1g;;	-tu	1b;;	-tu	1dd;;	-tu
=-	=-	=-	=-	=-	=-	=-	=-	=-	=-	=-	=-	=-	=-	=-	=-
*-	*-	*-	*-	*-	*-	*-	*-	*-	*-	*-	*-	*-	*-	*-	*-
!!!system-decoration: [(s1,s2,s3,s4)][(s5,s6,s7,s8)]
!!!RDF**kern: < = below
!!!RDF**kern: > = above
!!!AIN: 8 empty
!!!ENC: Anastazja Marusiak
!!!END: 2021-10-05
!!!ENC: Marta Chmielewska
!!!END: 2021-10-12
